X:16001
T:Past Three O'Clock
T:London Waits
R:Waltz
C:Trad.
O:England
Z:Paul Hardy's Xmas Tunebook 2019 (see www.paulhardy.net). Creative Commons cc by-nc-sa licenced.
M:3/4
L:1/8
Q:1/4=130
K:G
"G"G2"Em"E2"C"E2|"D7"D4 D2|"G"GA B2 B2|"D"d4 A2|"G"G2 "Em"E2 "C"E2|"D7"D4 D2|"G"GA B2"D"A2|"G"G6|
"Em"G2A2B2|"Am"A4G2|"D"A2G2A2|"G"B2 G4|"Em"GF GA Bc|"Am"A4 G2|"D"A2G2A2|"Em"B2e4|
"G"G2"Em"E2 "C"E2|"D7"D4 DD|"G"GA B2 B2|"D"d4 A2|"G"G2"Em"E2 "C"E2|"D7"D4 D2|"G"GA B2"D7"A2|"G"G6|]
W:Past three a clock,
W:And a cold frosty morning,
W:Past three a clock;
W:Good morrow, masters all!
W:
W:Born is a Baby, Gentle as may be,
W:Son of the eternal, Father supernal.
W:
W:Past three a clock,
W:And a cold frosty morning,
W:Past three a clock;
W:Good morrow, masters all!
W:
W:(George Ratcliffe Woodward, 1924)

